X: 30697
T: Orange Rogue, The
R: jig
M: 6/8
K: Eminor
d|:(e/f/g)e dBA|GEF G2 A|BAB ^def|g2 b agf|
(e/f/g)e dBA|GEF G2 A|BAB d^c^d|1 e3 e2 d:|2 e3 e2 f||
|:!uppermordent!g2 e a2 f|!uppermordent!g2 B BAB|!uppermordent!g2 e a2 f|{a}g3 B2 d|
uppermordent!g2 e a2 f|!uppermordent!g2 e fed|BAB ^def|g2 b agf:|

